img/icons/paywall/icon-calendar-with-clock.svg

<svg width="28" height="28" viewBox="0 0 28 28" fill="none" xmlns="http://www.w3.org/2000/svg">
<g clip-path="url(#clip0_13793_7331)">
<path d="M19.8333 11.7127C15.3312 11.7127 11.6667 15.376 11.6667 19.8793C11.6667 24.357 15.3312 28.0005 19.8333 28.0005C24.3355 28.0005 28 24.3372 28 19.8338C28 15.3562 24.3355 11.7127 19.8333 11.7127ZM19.8333 25.6672C16.6168 25.6672 14 23.0702 14 19.8793C14 16.6628 16.6168 14.046 19.8333 14.046C23.0498 14.046 25.6667 16.643 25.6667 19.8338C25.6667 23.0503 23.0498 25.6672 19.8333 25.6672ZM21.8248 20.1757C22.0436 20.3944 22.1665 20.6911 22.1665 21.0005C22.1665 21.3099 22.0436 21.6066 21.8248 21.8253C21.6061 22.0441 21.3094 22.167 21 22.167C20.6906 22.167 20.3939 22.0441 20.1752 21.8253L19.0085 20.6587C18.7897 20.4399 18.6667 20.1432 18.6667 19.8338V17.5005C18.6667 17.1911 18.7896 16.8943 19.0084 16.6755C19.2272 16.4567 19.5239 16.3338 19.8333 16.3338C20.1428 16.3338 20.4395 16.4567 20.6583 16.6755C20.8771 16.8943 21 17.1911 21 17.5005V19.3508L21.8248 20.1757ZM28 8.16715V10.5005C28 10.8099 27.8771 11.1067 27.6583 11.3254C27.4395 11.5442 27.1428 11.6672 26.8333 11.6672C26.5239 11.6672 26.2272 11.5442 26.0084 11.3254C25.7896 11.1067 25.6667 10.8099 25.6667 10.5005V8.16715C25.6667 6.23749 24.0963 4.66715 22.1667 4.66715H5.83333C3.90367 4.66715 2.33333 6.23749 2.33333 8.16715V9.33382H12.8333C13.1428 9.33382 13.4395 9.45674 13.6583 9.67553C13.8771 9.89432 14 10.1911 14 10.5005C14 10.8099 13.8771 11.1067 13.6583 11.3254C13.4395 11.5442 13.1428 11.6672 12.8333 11.6672H2.33333V22.1672C2.33333 24.0968 3.90367 25.6672 5.83333 25.6672H10.5C10.8094 25.6672 11.1062 25.7901 11.325 26.0089C11.5437 26.2277 11.6667 26.5244 11.6667 26.8338C11.6667 27.1432 11.5437 27.44 11.325 27.6588C11.1062 27.8776 10.8094 28.0005 10.5 28.0005H5.83333C2.61683 28.0005 0 25.3837 0 22.1672V8.16715C0 4.95065 2.61683 2.33382 5.83333 2.33382H7V1.16715C7 0.857736 7.12292 0.560989 7.34171 0.342197C7.5605 0.123405 7.85725 0.000488281 8.16667 0.000488281C8.47609 0.000488281 8.77283 0.123405 8.99162 0.342197C9.21042 0.560989 9.33333 0.857736 9.33333 1.16715V2.33382H18.6667V1.16715C18.6667 0.857736 18.7896 0.560989 19.0084 0.342197C19.2272 0.123405 19.5239 0.000488281 19.8333 0.000488281C20.1428 0.000488281 20.4395 0.123405 20.6583 0.342197C20.8771 0.560989 21 0.857736 21 1.16715V2.33382H22.1667C25.3832 2.33382 28 4.95065 28 8.16715Z" fill="#C47A2C"/>
</g>
<defs>
<clipPath id="clip0_13793_7331">
<rect width="28" height="28" fill="white"/>
</clipPath>
</defs>
</svg>

<svg width="28" height="28" fill="none" xmlns="http://www.w3.org/2000/svg"><g clip-path="url(#clip0_13793_7331)"><path d="M19.833 11.713c-4.502 0-8.166 3.663-8.166 8.166 0 4.478 3.664 8.121 8.166 8.121C24.336 28 28 24.337 28 19.834c0-4.478-3.665-8.121-8.167-8.121zm0 13.954C16.617 25.667 14 23.07 14 19.88a5.84 5.84 0 015.833-5.833c3.217 0 5.834 2.597 5.834 5.788a5.84 5.84 0 01-5.834 5.833zm1.992-5.491a1.166 1.166 0 11-1.65 1.65l-1.166-1.167a1.167 1.167 0 01-.342-.825V17.5a1.167 1.167 0 112.333 0v1.85l.825.826zM28 8.167v2.334a1.166 1.166 0 11-2.333 0V8.167c0-1.93-1.57-3.5-3.5-3.5H5.833c-1.93 0-3.5 1.57-3.5 3.5v1.167h10.5a1.167 1.167 0 110 2.333h-10.5v10.5c0 1.93 1.57 3.5 3.5 3.5H10.5a1.167 1.167 0 110 2.333H5.833A5.84 5.84 0 010 22.167v-14a5.84 5.84 0 015.833-5.833H7V1.167a1.167 1.167 0 012.333 0v1.167h9.334V1.167a1.167 1.167 0 112.333 0v1.167h1.167A5.84 5.84 0 0128 8.167z" fill="#C47A2C"/></g><defs><clipPath id="clip0_13793_7331"><path fill="#fff" d="M0 0h28v28H0z"/></clipPath></defs></svg>
